svg/u1F68A.svg

<svg viewBox="0 0 2600 2760.837" xmlns="http://www.w3.org/2000/svg"><path d="M1713 607q140 0 241 101t101 241v941q0 130-87.5 228t-217.5 112v169q0 31-21.5 52.5t-52.5 21.5-53-21.5-22-52.5v-167h-603v167q0 31-21.5 52.5t-52.5 21.5-52.5-21.5-21.5-52.5v-169q-130-14-218-111.5t-88-228.5v-941q0-140 101-241t241-101h130v-259q-38 14-61 39.5t-23 31.5q-8 16-22.5 24.5t-31.5 8.5q-26 0-42.5-18t-16.5-40q0-13 6-25l15-26q26-44 87.5-83.5t147.5-39.5h450q84 0 146 39.5t89 83.5l15 26q5 13 5 24 0 23-16.5 41.5t-42.5 18.5q-17 0-31.5-9t-22.5-25q0-5-22.5-31t-61.5-40v259h130z m-580 0h333v-269h-333v269z m-223.5 1196q-36.5-36-86.5-36-52 0-88 36t-36 88q0 53 37.5 88.5t86.5 35.5q48 0 85.5-35.5t37.5-88.5q0-52-36.5-88z m955.5 0q-36-36-88-36-53 0-88.5 37.5t-35.5 86.5q0 51 36.5 87.5t87.5 36.5q49 0 86.5-35.5t37.5-88.5q0-52-36-88z m40-898q0-75-54.5-129.5t-129.5-54.5h-841q-76 0-130.5 54t-54.5 130v437q0 76 54.5 130.5t130.5 54.5h841q76 0 130-54.5t54-130.5v-437z"/></svg>

<svg viewBox="0 0 2600 2760.837" xmlns="http://www.w3.org/2000/svg"><path d="M1713 607q140 0 241 101t101 241v941q0 130-87.5 228T1750 2230v169q0 31-21.5 52.5T1676 2473t-53-21.5-22-52.5v-167H998v167q0 31-21.5 52.5T924 2473t-52.5-21.5T850 2399v-169q-130-14-218-111.5T544 1890V949q0-140 101-241t241-101h130V348q-38 14-61 39.5T932 419q-8 16-22.5 24.5T878 452q-26 0-42.5-18T819 394q0-13 6-25l15-26q26-44 87.5-83.5T1075 220h450q84 0 146 39.5t89 83.5l15 26q5 13 5 24 0 23-16.5 41.5T1721 453q-17 0-31.5-9t-22.5-25q0-5-22.5-31t-61.5-40v259h130zm-580 0h333V338h-333v269zM909.5 1803q-36.5-36-86.5-36-52 0-88 36t-36 88q0 53 37.5 88.5T823 2015q48 0 85.5-35.5T946 1891q0-52-36.5-88zm955.5 0q-36-36-88-36-53 0-88.5 37.5T1653 1891q0 51 36.5 87.5t87.5 36.5q49 0 86.5-35.5t37.5-88.5q0-52-36-88zm40-898q0-75-54.5-129.5T1721 721H880q-76 0-130.5 54T695 905v437q0 76 54.5 130.5T880 1527h841q76 0 130-54.5t54-130.5V905z"/></svg>
